X: 13284
T: Fjallnas Hambo, The
R: mazurka
M: 3/4
K: Gmajor
|:D2|G2 G>B A<F|G2 B>d (3gfg|a2 a>g (3fef|g2 b>g d<B|
G2 G>B A<F|G2 B>d (3gfg|a2 a>g (3fef|g2 G2:|
|:(3ABc|d2 B>d g<f|e2 e>d c2|a2 a>g (3fef|g2 b>g d<B|
d2 B>d g<f|e2 e>d c2|a2 a>g (3fef|g2 G2:|
|:g>a|b2 b>a g<f|e2 e>d c2|a2 a>g f<e|d>e c>d B>A|
G2 G>B A<F|G2 B>d (3gfg|a2 a>g (3fef|g2 G2:|

